X: 09091
T: PRESIDENT CLINTON'S HORNPIPE
C: Bob McQuillen 27 Feb 93
B: Bob's Note Book 9 #91
R: hornpipe, reel
Z: 2018 John Chambers <jc:trillian.mit.edu>
M: C
L: 1/8
K: G
GE |\
DGBG AGEG | DGBd BGFG | AGBG cBAG | FAGE DCB,C |
DGBG AGEG | DGBd BGFG | DGBd ecAF | G2B2 G2 :|
|: FG |\
ABAG FEDC | B,DGA GDGB | cdcB ABcd | edBG D2Bd |
ecec Gcec | dBGB DGBd | egfa gedc | B2G2 G2 :|
%%begintext align
%% Well, today does happen to be Chelsea Clinton's
%% 13th birthday, so "Happy Birthday, Chelsea!", but that isn't why
%% I wrote this tune. There's a "President Garfield's Hornpipe" that's pretty
%% well known here in New England, and since I am such a strong
%% believer in and supporter of our new president, I just felt it would
%% be nice if he had his own tune, too. It comes to you with faith,
%% hope, and trust, and most sincere best wishes on the arduous
%% years ahead, Mr. President. Good Luck to you!
%%endtext
%%begintext align
%% P.S. This _will_ play on a saxophone! :-)
%%endtext

%%sep 1 1 500

%%sep 1 1 500

